vendor/shopware/storefront/Resources/app/storefront/dist/assets/icon/solid/collapse.svg

<svg xmlns="http://www.w3.org/2000/svg" width="16" height="16" viewBox="0 0 16 16">
  <path fill="#758CA3" fill-rule="evenodd" d="M11,3.58578644 L13.2928932,1.29289322 C13.6834175,0.902368927 14.3165825,0.902368927 14.7071068,1.29289322 C15.0976311,1.68341751 15.0976311,2.31658249 14.7071068,2.70710678 L12.4142136,5 L14,5 C14.5522847,5 15,5.44771525 15,6 C15,6.55228475 14.5522847,7 14,7 L10,7 C9.44771525,7 9,6.55228475 9,6 L9,2 C9,1.44771525 9.44771525,1 10,1 C10.5522847,1 11,1.44771525 11,2 L11,3.58578644 Z M5,12.4142136 L2.70710678,14.7071068 C2.31658249,15.0976311 1.68341751,15.0976311 1.29289322,14.7071068 C0.902368927,14.3165825 0.902368927,13.6834175 1.29289322,13.2928932 L3.58578644,11 L2,11 C1.44771525,11 1,10.5522847 1,10 C1,9.44771525 1.44771525,9 2,9 L6,9 C6.55228475,9 7,9.44771525 7,10 L7,14 C7,14.5522847 6.55228475,15 6,15 C5.44771525,15 5,14.5522847 5,14 L5,12.4142136 Z"/>
</svg>

<svg xmlns="http://www.w3.org/2000/svg" width="16" height="16" viewBox="0 0 16 16"><path fill="#758CA3" fill-rule="evenodd" d="m11 3.5858 2.2929-2.293c.3905-.3904 1.0237-.3904 1.4142 0 .3905.3906.3905 1.0238 0 1.4143L12.4142 5H14c.5523 0 1 .4477 1 1s-.4477 1-1 1h-4c-.5523 0-1-.4477-1-1V2c0-.5523.4477-1 1-1s1 .4477 1 1v1.5858zm-6 8.8284-2.2929 2.293c-.3905.3904-1.0237.3904-1.4142 0-.3905-.3906-.3905-1.0238 0-1.4143L3.5858 11H2c-.5523 0-1-.4477-1-1s.4477-1 1-1h4c.5523 0 1 .4477 1 1v4c0 .5523-.4477 1-1 1s-1-.4477-1-1v-1.5858z"/></svg>
